X: 32384
T: Piper In The Forest, The
R: jig
M: 6/8
K: Dmajor
|:AFA dAd|ede f2f|gag fed|efe edB|
AFA dAd|ede f2f|gag fed|1 edc d2B:|2 edc dfg||
|:~a3 agf|gee e2f|gag fed|edB Afg|
~a3 agf|gee e2f|gag fed|1 edc dfg:|2 efe edB||

